flash-vue-admin/src/icons/svg/form.svg

<?xml version="1.0" standalone="no"?><!DOCTYPE svg PUBLIC "-//W3C//DTD SVG 1.1//EN" "http://www.w3.org/Graphics/SVG/1.1/DTD/svg11.dtd"><svg t="1511504319223" class="icon" style="" viewBox="0 0 1024 1024" version="1.1" xmlns="http://www.w3.org/2000/svg" p-id="3230" xmlns:xlink="http://www.w3.org/1999/xlink" width="64" height="64"><defs><style type="text/css"></style></defs><path d="M942.827259 80.3367c-11.42419-11.406794-26.41051-17.117866-41.377386-17.117866-14.985296 0-29.952172 5.711072-41.358967 17.117866L719.392444 221.014696l-19.441794 19.441794L681.577187 258.832 569.516971 370.909611 375.99749 564.411697l0 0.019443 0 84.372619 81.145112 0 0.010233 0 95.418186-95.435583 213.398228-213.400275 3.14155-3.14155-0.019443 0 9.979282-9.977235 0 0L942.827259 163.073052C965.697129 140.259464 965.697129 103.186104 942.827259 80.3367z" p-id="3231"></path><path d="M793.542234 367.521444 580.14196 580.939115 484.72582 676.376745 473.299583 687.800935 457.152834 687.800935 375.99749 687.800935 337.000314 687.800935 337.000314 648.803759 337.000314 564.411697 337.000314 548.264948 348.424504 536.838711 541.943986 343.338672 654.004201 231.259014 665.428392 219.834824 64.020082 219.834824 64.020082 960.781166 804.966425 960.781166 804.966425 356.116697 796.607036 364.475062Z" p-id="3232"></path></svg>

<svg class="icon" viewBox="0 0 1024 1024" xmlns="http://www.w3.org/2000/svg" width="64" height="64"><defs><style/></defs><path d="M942.827 80.337c-11.424-11.407-26.41-17.118-41.377-17.118-14.985 0-29.952 5.71-41.36 17.118L719.393 221.015l-19.441 19.441-18.374 18.376-112.06 112.078-193.52 193.502v84.392h81.156l95.418-95.436 213.398-213.4 3.142-3.142h-.02l9.98-9.977 163.756-163.776c22.87-22.814 22.87-59.887 0-82.736z"/><path d="M793.542 367.521l-213.4 213.418-95.416 95.438L473.3 687.8H337V548.265l11.425-11.426 193.519-193.5 112.06-112.08 11.424-11.424H64.02V960.78h740.946V356.117l-8.359 8.358z"/></svg>
